X:240
T:Miss Monaghan
Z: id:dc-reel-220
M:C
L:1/8
K:D Major
D2FD FAA2|BcBA FABc|dedB ABde|f2ed fee2|!
D2FD FAA2|BcBA FABc|dedB ABdB|AFEG FDD2:|!
faab afdf|gefd edBc|dedB ABde|f2ed fee2|!
faab afdf|gefd edBc|dedB ABdB|AFEG FDD2:|!

